icons/fork-plate-knife.svg

<?xml version="1.0" encoding="UTF-8"?><svg xmlns="http://www.w3.org/2000/svg" viewBox="0 0 50 50"><g id="uuid-d6076958-ea4b-45e1-8b66-e1fb1cf46597"><g><path d="M25.86,8.31c-9.2,0-16.69,7.49-16.69,16.69s7.49,16.69,16.69,16.69,16.69-7.49,16.69-16.69-7.49-16.69-16.69-16.69Zm0,32.38c-8.65,0-15.69-7.04-15.69-15.69s7.04-15.69,15.69-15.69,15.69,7.04,15.69,15.69-7.04,15.69-15.69,15.69Z"/><path d="M25.86,12.22c-7.05,0-12.78,5.73-12.78,12.78s5.73,12.78,12.78,12.78,12.78-5.73,12.78-12.78-5.73-12.78-12.78-12.78Zm0,24.57c-6.5,0-11.78-5.29-11.78-11.78s5.29-11.78,11.78-11.78,11.78,5.29,11.78,11.78-5.29,11.78-11.78,11.78Z"/><path d="M47.48,10.83c-.68-.53-1.5-.86-2.44-.96-.14-.01-.28,.03-.39,.12-.11,.1-.17,.23-.17,.37v14.62s0,.01,0,.02c0,0,0,.01,0,.02v14.62c0,.28,.22,.5,.5,.5h3.17c.28,0,.5-.22,.5-.5v-14.59c2.04-6.35,1.57-12.06-1.18-14.23Zm-1.99,.13c.52,.13,.98,.35,1.37,.66,2.35,1.85,2.72,7.11,.94,12.87h-2.31V10.95Zm2.17,28.19h-2.17v-13.62h2.17v13.62Z"/><path d="M7.23,9.85c-.28,0-.5,.22-.5,.5v6.39c-.1-.02-.19-.06-.29-.06h-.92l-.04-6.32c0-.27-.23-.5-.5-.5h0c-.28,0-.5,.23-.5,.5l.04,6.31h-1.23v-6.34c0-.28-.22-.5-.5-.5s-.5,.22-.5,.5v6.34h-.93c-.1,0-.19,.04-.29,.06v-6.38c0-.28-.22-.5-.5-.5s-.5,.22-.5,.5v8.86c0,.71,.58,1.29,1.29,1.29h.59v4.28c-.18,.07-.31,.25-.31,.46v14.39c0,.28,.22,.5,.5,.5h3.52c.28,0,.5-.22,.5-.5v-14.39c0-.21-.13-.39-.32-.46v-4.28h.59c.62,0,1.11-.45,1.24-1.03,.03-.07,.05-.14,.05-.22V10.35c0-.28-.22-.5-.5-.5Zm-1.88,9.67H1.37c-.16,0-.29-.13-.29-.29v-1.25c0-.16,.13-.29,.29-.29H6.44c.16,0,.29,.13,.29,.29v1.25c0,.16-.13,.29-.29,.29h-1.09Zm-.18,19.64H2.65v-13.39h2.52v13.39Zm-.32-14.5h-1.89v-4.14h1.89v4.14Z"/></g></g><g id="uuid-943741f3-85ff-4fcb-9102-c7e60975a968"><text transform="translate(-.05 55.05)" font-family="Roboto-Regular, Roboto" font-size="6"><tspan x="0" y="0">fork-plate-kni</tspan><tspan x="34.92" y="0" letter-spacing="-.01em">f</tspan><tspan x="36.93" y="0">e</tspan></text></g></svg>

<svg xmlns="http://www.w3.org/2000/svg" viewBox="0 0 50 50"><g id="b9b7864a-c994-405e-b500-39af6eda3dbd" data-name="ICONS"><path d="M25.86,8.31A16.69,16.69,0,1,0,42.55,25,16.71,16.71,0,0,0,25.86,8.31Zm0,32.38A15.69,15.69,0,1,1,41.55,25,15.71,15.71,0,0,1,25.86,40.69Z"/><path d="M25.86,12.22A12.78,12.78,0,1,0,38.64,25,12.79,12.79,0,0,0,25.86,12.22Zm0,24.56A11.78,11.78,0,1,1,37.64,25,11.79,11.79,0,0,1,25.86,36.78Z"/><path d="M47.48,10.83a4.73,4.73,0,0,0-2.44-1,.52.52,0,0,0-.39.13.51.51,0,0,0-.16.37V39.64a.5.5,0,0,0,.5.5h3.17a.5.5,0,0,0,.5-.5V25.05C50.7,18.71,50.23,13,47.48,10.83Zm-2,.12a3.57,3.57,0,0,1,1.37.66c2.35,1.85,2.72,7.11.93,12.87h-2.3Zm2.17,28.19H45.49V25.52h2.17Z"/><path d="M7.23,9.85a.5.5,0,0,0-.5.5v6.39a1.36,1.36,0,0,0-.29-.06H5.53l0-6.32A.49.49,0,0,0,5,9.87H5a.5.5,0,0,0-.5.5l0,6.31H3.3V10.35a.5.5,0,0,0-.5-.5.5.5,0,0,0-.5.5v6.33H1.37a1.5,1.5,0,0,0-.29.06V10.37a.5.5,0,0,0-.5-.5.5.5,0,0,0-.5.5v8.84h0a1.29,1.29,0,0,0,1.29,1.29H2V24.8a.49.49,0,0,0-.31.46V39.65a.5.5,0,0,0,.5.5H5.67a.5.5,0,0,0,.5-.5V25.26a.49.49,0,0,0-.32-.46V20.51h.59a1.27,1.27,0,0,0,1.24-1,.54.54,0,0,0,.05-.22V10.35A.5.5,0,0,0,7.23,9.85ZM5.35,19.51h-4a.29.29,0,0,1-.29-.29h0V18a.29.29,0,0,1,.29-.29H6.44a.29.29,0,0,1,.29.29v1.25a.29.29,0,0,1-.29.29ZM5.17,39.15H2.65V25.76H5.17Zm-.32-14.5H3V20.51H4.85Z"/></g><g id="f3cdc0b5-cdb9-4225-9a00-29fb761b3396" data-name="LABELS"><text transform="translate(-0.05 55.05)" font-size="6" font-family="Roboto-Regular, Roboto">fork-plate-kni<tspan x="34.92" y="0" letter-spacing="-0.01em">f</tspan><tspan x="36.93" y="0">e</tspan></text></g></svg>
